svg/fluentui-system-icons/ic_fluent_text_indent_increase_ltr_90_20_filled.svg

<svg width="20" height="20" viewBox="0 0 20 20" fill="none" xmlns="http://www.w3.org/2000/svg">
<path d="M9.03033 2.21967C8.73744 1.92678 8.26256 1.92678 7.96967 2.21967C7.67678 2.51256 7.67678 2.98744 7.96967 3.28033L9.46967 4.78033C9.76256 5.07322 10.2374 5.07322 10.5303 4.78033L12.0303 3.28033C12.3232 2.98744 12.3232 2.51256 12.0303 2.21967C11.7374 1.92678 11.2626 1.92678 10.9697 2.21967L10 3.18934L9.03033 2.21967ZM6.25 7.75C6.25 7.33579 5.91421 7 5.5 7C5.08579 7 4.75 7.33579 4.75 7.75V14.25C4.75 14.6642 5.08579 15 5.5 15C5.91421 15 6.25 14.6642 6.25 14.25V7.75ZM15.25 7.75C15.25 7.33579 14.9142 7 14.5 7C14.0858 7 13.75 7.33579 13.75 7.75V14.25C13.75 14.6642 14.0858 15 14.5 15C14.9142 15 15.25 14.6642 15.25 14.25V7.75ZM9.25 17.25V7.75C9.25 7.33579 9.58579 7 10 7C10.4142 7 10.75 7.33579 10.75 7.75V17.25C10.75 17.6642 10.4142 18 10 18C9.58579 18 9.25 17.6642 9.25 17.25Z" fill="#212121"/>
</svg>

<svg xmlns="http://www.w3.org/2000/svg" width="20" height="20"><path d="M9.03 2.22a.75.75 0 0 0-1.06 1.06l1.5 1.5a.75.75 0 0 0 1.06 0l1.5-1.5a.75.75 0 0 0-1.06-1.06l-.97.97-.97-.97ZM6.25 7.75a.75.75 0 0 0-1.5 0v6.5a.75.75 0 0 0 1.5 0v-6.5Zm9 0a.75.75 0 0 0-1.5 0v6.5a.75.75 0 0 0 1.5 0v-6.5Zm-6 9.5v-9.5a.75.75 0 0 1 1.5 0v9.5a.75.75 0 0 1-1.5 0Z"/></svg>
